X:19294
T:itza gmma aaf Loretta - Landla - Walzer/Waltz/Valse
C:Q:Nach E. Baumann, Alt-Egerlnder Tnze
Z:abc transcription Simon Wascher
N:please mail errors to simon.wascher@chello.at
M:3/4
L:1/4
K:G
D|G2B|d2G|GF2|FzD|
F2A|d2c|B3|Bzd|
B2B|c2d/d/|e2g|f2e|
d2d|1fe>c|B3-|Bz2:|2fe>F|G3-|Gz||
K:C
|:E/G/|A/=f/f/e/e/d/|cE/G/G/c/|BD/G/G/B/|cE/G/G/c/|
A/f/f/e/e/d/|cE/G/G/c/|BD/G/G/B/|c2:|
K:G
|:z|g3|d3|BB>B|c3|
f3|e3|cc>c|B3|
ggg|ddd|BB>B|c3|
f3|e3|def|g2:|
